ix/command-square_twotone.svg

<svg viewBox="0 0 24 24" fill="none" xmlns="http://www.w3.org/2000/svg" height="1em" width="1em">
  <g opacity="0.4">
    <path d="M14.3997 9.6001H9.59961V14.4001H14.3997V9.6001Z" stroke="#292D32" stroke-width="1.5" stroke-linecap="round" stroke-linejoin="round"/>
    <path d="M7.79999 17.9999C8.78999 17.9999 9.59998 17.1899 9.59998 16.1999V14.3999H7.79999C6.80999 14.3999 6 15.2099 6 16.1999C6 17.1899 6.80999 17.9999 7.79999 17.9999Z" stroke="#292D32" stroke-width="1.5" stroke-linecap="round" stroke-linejoin="round"/>
    <path d="M7.79999 9.60001H9.59998V7.79999C9.59998 6.80999 8.78999 6 7.79999 6C6.80999 6 6 6.80999 6 7.79999C6 8.78999 6.80999 9.60001 7.79999 9.60001Z" stroke="#292D32" stroke-width="1.5" stroke-linecap="round" stroke-linejoin="round"/>
    <path d="M14.4004 9.60001H16.2004C17.1904 9.60001 18.0004 8.78999 18.0004 7.79999C18.0004 6.80999 17.1904 6 16.2004 6C15.2104 6 14.4004 6.80999 14.4004 7.79999V9.60001Z" stroke="#292D32" stroke-width="1.5" stroke-linecap="round" stroke-linejoin="round"/>
    <path d="M16.2004 17.9999C17.1904 17.9999 18.0004 17.1899 18.0004 16.1999C18.0004 15.2099 17.1904 14.3999 16.2004 14.3999H14.4004V16.1999C14.4004 17.1899 15.2104 17.9999 16.2004 17.9999Z" stroke="#292D32" stroke-width="1.5" stroke-linecap="round" stroke-linejoin="round"/>
  </g>
  <path d="M9 22H15C20 22 22 20 22 15V9C22 4 20 2 15 2H9C4 2 2 4 2 9V15C2 20 4 22 9 22Z" stroke="#292D32" stroke-width="1.5" stroke-linecap="round" stroke-linejoin="round"/>
</svg>

<svg viewBox="0 0 24 24" fill="none" xmlns="http://www.w3.org/2000/svg" height="1em" width="1em">
  <path d="M14.4 9.6H9.6v4.8h4.8V9.6ZM7.8 18c.99 0 1.8-.81 1.8-1.8v-1.8H7.8c-.99 0-1.8.81-1.8 1.8S6.81 18 7.8 18Zm0-8.4h1.8V7.8c0-.99-.81-1.8-1.8-1.8S6 6.81 6 7.8s.81 1.8 1.8 1.8Zm6.6 0h1.8c.99 0 1.8-.81 1.8-1.8S17.19 6 16.2 6s-1.8.81-1.8 1.8v1.8Zm1.8 8.4c.99 0 1.8-.81 1.8-1.8s-.81-1.8-1.8-1.8h-1.8v1.8c0 .99.81 1.8 1.8 1.8Z" opacity=".4" stroke="#292D32" stroke-width="1.5" stroke-linecap="round" stroke-linejoin="round"/>
  <path d="M9 22h6c5 0 7-2 7-7V9c0-5-2-7-7-7H9C4 2 2 4 2 9v6c0 5 2 7 7 7Z" stroke="#292D32" stroke-width="1.5" stroke-linecap="round" stroke-linejoin="round"/>
</svg>
